X:9416
T:Le Pitit Tambour. JMT.033
T:Le Petit Tambour. JMT.033
T:Grand Old Duke Of York. JMT.033
M:2/4
L:1/8
Q:200
S:J.Moore,Tyneside,1841.(25)
R:Cotillion
O:England
A:Northumbria
H:184
Z:vmp.Chris Partington
K:C
e/d/|cGEG|c3B/c/|dddd|d>e dc/d/|eeee|.ef/-e/ .de/-d/|cc B/-c/d/B/|c3|!
|c/B/|AABc|d>c .Bc/-B/|AABc|d3c/B/| AABc|.d.d/.d/ .c.c/.c/|.B.B/.B/ .A.A
/.A/|G4|!cc/c/ cc|c3G|cGEC|G,GzG|cc/c/ cc|c3e|d/-e/.d/.c/ B/c/B/A/|G/-A/
.B/.c/"DC" d/e/f/d/||


